X:1
T:Title
%%score { 1 | ( 2 3 ) }
L:1/8
M:3/4
K:D
V:1 treble nm="Grand Piano"
V:2 bass 
V:3 bass 
V:1
 z2 z2[Q:1/4=94] [FA]2 | [FA][DF] [Fd]3 [FA] | FD B3 B | AF D2 E2 | F4 F2 | [DF][DB] [Fd]3 [Ec] | %6
 [DB][DF] [EA]3 [FA] | ^GB d2 G2 |[M:2/4] [CEA]4 |[M:1/4] [CA]2 |[M:3/4] [EG][CE] [Ge]3 [Gc] | %11
 [Fd][GB] [FA]3 [FA] | [GB][Ac] [Ad]2 e2 | d2 c2 A2 | [FA][Fd] [Af]3 [Ge] | [Fd][Ac] B3 B | %16
[M:7/8] Ad c2 [Ge]3 |[M:2/4] [Fd]4 |] %18
V:2
 z2 z2 [D,D]2 | [D,D][D,A,] [D,A,]3 [D,A,] | [D,A,D][F,A,] [G,D]3 [G,D] | %3
 [D,F,D][D,A,D] [F,A,]2 [E,A,C]2 | [D,A,D]4 [D,A,D]2 | [B,,B,][B,,B,] [B,,B,]3 [B,,B,] | %6
 [B,,B,][B,,B,] [C,A,]3 [D,D] | [E,B,E][E,^G,E] [E,B,E]2 [E,DE]2 |[M:2/4] A,,4 |[M:1/4] [A,,A,]2 | %10
[M:3/4] [A,,A,][A,,A,] [A,,A,]3 [A,,A,] | [D,A,][D,D] [D,D]3 [D,D] | %12
 [G,D][E,E] [F,D]2[K:treble] [G,B,G]2 | F2 E2 [A,CG]2 | [D,D][D,D] [D,D]3 [D,D] | %15
 [D,D][F,D][K:treble] [G,DG]3 [G,DG] |[M:7/8] [A,DF][A,F] [A,E]2[K:bass] [A,,A,]3 | %17
[M:2/4] [D,A,]4 |] %18
V:3
 x6 | x6 | x6 | x6 | x6 | x6 | x6 | x6 |[M:2/4] x4 |[M:1/4] x2 |[M:3/4] x6 | x6 | x4[K:treble] x2 | %13
 A,4 z2 | x6 | x2[K:treble] x4 |[M:7/8] x4[K:bass] x3 |[M:2/4] x4 |] %18

